X:27
T:Angeline The Baker
C:Stephen Foster
R:Reel
M:4/4
L:1/8
K:D
|:"D"A2B2c2A2|B2d4d2|A2B2d2A2|"G"B6B2|
"D"A2B2d2e2|f2e2d2e2|f2e2d2B2|A8:|
|:a2f2e2d2|f2e2d2f2|a2f2e2d2|"G"B4B4|
"D"a2f2e2d2|f2e2d2e2|f2e2d2B2|A8:|
